X:1
B:Patterson, D W, 1979, The Shaker Spiritual, Princeton University Press, New Jersey
Z:Daniel W Patterson
F:http://www.folkinfo.org/songs
T:O Ho the Pretty Chain
M:2/4     %Meter
L:1/16     %
K:F
G4 c2 A2 |B2 A2 G2 F2 |G2 A2 G2 F2 |D4 F4 |
w:O ho the pret-ty chain That binds us all to-get-her
G4 c2 A2 |B2 A2 G2 F2 |G2 A2 G2 E2 |D4 C2 ::
w:O ho its links are love Thats wrought by faith-ful la-bor
C2 |A,2 C2 C2 C2 |D2 C2 C2 C2 |C2 D2 F2 F2 | G4 F2
w:And while this love we do main-tain Our spir-its flow to-geth-er
F2 |G2 c2 B2 A2 |B2 A2 G2 F2 |G2 A2 G2 F2 | D4 C4 :|
w: With-in this chain we will re-main Its linked in pret-ty Moth-er's.
